X:962
T:Xota de Llanes (MG 86)
T:Jota de Llanes (MG 86)
R:Xota
C:Versin de Silvino Fernndez Fueyo
S:Msica Tradicional Asturiana, (C) Tello & Tito. Asturies, 2001.
S:http://pagina.de/MusTradAst <telloytito@asturies.org>
A:Asturies
Z:Mtodu de Gaita 86
M:3/8
L:1/8
Q:3/8=80
E:Comp.
K:C
E/2D/2E/2F/2|
|"CODA" G/2F/2E/2D/2 C|C E/2D/2E/2F/2|GF/2E/2D|
~D B,/2C/2B,/2C/2|D B,/2C/2 D|~D B,/2C/2D/2E/2|FE/2D/2C|
C E/2D/2E/2F/2|~ED C|C E/2D/2E/2F/2|~G3/2F/2 G|GAB|
cec|AGE|~FE/2D/2C|"FIN"C || E/2D/2E/2F/2|
|:~E3/2D/2 E/2F/2|~E3/2D/2 E/2F/2|~G3/2F/2 G|G E/2D/2E/2F/2|
~E3/2D/2 E/2F/2|~E3/2D/2 E/2F/2|~E3/2D/2 C|C E/2D/2E/2F/2:|
|G/2F/2E/2D/2 C|C E/2D/2E/2F/2|GF/2E/2D|~D B,/2C/2B,/2C/2|
~D B,/2C/2 D|~D B,/2C/2D/2E/2|FE/2D/2C|C2 E|G2 G|
EGG|c2d|c2A|F2 E|DEF|A2 G|
CEF|G2 G|EGG|c2 d|c2 A|F2 E|
DEF|A2 G|E2 c|:E2 D|CDE|F2 E|
D2 E|C2 D|B,CD|E2 D|[1 C2 C:|
[2 C E/2D/2E/2F/2||G/2F/2E/2D/2 C|C E/2D/2E/2F/2|GF/2E/2D|
~D B,/2C/2B,/2C/2|D B,/2C/2 D|~D B,/2C/2D/2E/2|FE/2D/2C|
C E/2D/2E/2F/2|~E3/2D/2 C|C E/2D/2E/2F/2|~G3/2F/2G|GAB|
cec|AGE|~FE/2D/2C|C E/2D/2E/2F/2|
|:~E3/2D/2 E/2F/2|~E3/2D/2 E/2F/2|~G3/2F/2 G|G E/2D/2E/2F/2|
~E3/2D/2 E/2F/2|~E3/2D/2 E/2F/2|~E3/2D/2 C|C E/2D/2E/2F/2:|
|G/2F/2E/2D/2 C|C E/2D/2E/2F/2|GF/2E/2D|C B,/2C/2B,/2C/2|
D B,/2C/2 D|~D B,/2C/2D/2E/2|~FE/2D/2C|C E/2D/2E/2F/2|
~E3/2D/2 C|C E/2D/2E/2F/2|~G3/2F/2 G|GAB|cec|
AGE|~FE/2D/2C|C2 E|G2 G|EGG|
c2 d|c2 A|F2 E|DEF|A2 G|
CEF|G2 G|EGG|c2 d|c2 A|
F2 E|DEF|A2 G|E2 C|:E2 D|
CDE|F2 E|D2 E|C2 D|B,CD|
"A CODA y hasta FIN"E2 D|[1 C2 C:|[2 C E/2D/2F/2E/2||
